nova/resources/svg/fluent/mail.svg

<svg width="24" height="24" viewBox="0 0 24 24" fill="none" xmlns="http://www.w3.org/2000/svg">
<path d="M5.25 4H18.75C20.483 4 21.8992 5.35645 21.9949 7.06558L22 7.25V16.75C22 18.483 20.6435 19.8992 18.9344 19.9949L18.75 20H5.25C3.51697 20 2.10075 18.6435 2.00514 16.9344L2 16.75V7.25C2 5.51697 3.35645 4.10075 5.06558 4.00514L5.25 4H18.75H5.25ZM20.5 9.373L12.3493 13.6637C12.1619 13.7623 11.9431 13.7764 11.7468 13.706L11.6507 13.6637L3.5 9.374V16.75C3.5 17.6682 4.20711 18.4212 5.10647 18.4942L5.25 18.5H18.75C19.6682 18.5 20.4212 17.7929 20.4942 16.8935L20.5 16.75V9.373ZM18.75 5.5H5.25C4.33183 5.5 3.57881 6.20711 3.5058 7.10647L3.5 7.25V7.679L12 12.1525L20.5 7.678V7.25C20.5 6.33183 19.7929 5.57881 18.8935 5.5058L18.75 5.5Z" fill="currentColor"/>
</svg>

<svg viewBox="0 0 24 24" fill="none" xmlns="http://www.w3.org/2000/svg"><path d="M5.25 4h13.5a3.25 3.25 0 013.245 3.066L22 7.25v9.5a3.25 3.25 0 01-3.066 3.245L18.75 20H5.25a3.25 3.25 0 01-3.245-3.066L2 16.75v-9.5a3.25 3.25 0 013.066-3.245L5.25 4h13.5-13.5zM20.5 9.373l-8.15 4.29a.75.75 0 01-.603.043l-.096-.042L3.5 9.374v7.376a1.75 1.75 0 001.606 1.744l.144.006h13.5a1.75 1.75 0 001.744-1.607l.006-.143V9.373zM18.75 5.5H5.25a1.75 1.75 0 00-1.744 1.606L3.5 7.25v.429l8.5 4.473 8.5-4.474V7.25a1.75 1.75 0 00-1.607-1.744L18.75 5.5z" fill="currentColor"/></svg>
